src/lib/packages/icons/src/assets/line/folder-heart.svg

<svg width="24" height="24" viewBox="0 0 24 24" fill="none" xmlns="http://www.w3.org/2000/svg">
<path d="M18 20.75H6C3.582 20.75 2.25 19.418 2.25 17V7C2.25 4.582 3.582 3.25 6 3.25H10C10.199 3.25 10.39 3.329 10.53 3.47L13.3101 6.25H18C20.418 6.25 21.75 7.582 21.75 10V17C21.75 19.418 20.418 20.75 18 20.75ZM6 4.75C4.423 4.75 3.75 5.423 3.75 7V17C3.75 18.577 4.423 19.25 6 19.25H18C19.577 19.25 20.25 18.577 20.25 17V10C20.25 8.423 19.577 7.75 18 7.75H13C12.801 7.75 12.61 7.671 12.47 7.53L9.68994 4.75H6ZM12 17.75C11.896 17.75 11.7911 17.728 11.6931 17.685C11.5571 17.624 8.35508 16.164 7.83008 13.5C7.61608 12.417 7.82889 11.388 8.41089 10.677C8.90389 10.075 9.60897 9.75501 10.449 9.75101C10.453 9.75101 10.4579 9.75101 10.4619 9.75101C11.1229 9.75101 11.631 10.007 12 10.339C12.369 10.006 12.8771 9.75101 13.5381 9.75101C13.5421 9.75101 13.546 9.75101 13.551 9.75101C14.393 9.75501 15.0981 10.075 15.5901 10.677C16.1721 11.389 16.3829 12.418 16.1689 13.5C15.6449 16.164 12.4419 17.624 12.3069 17.685C12.2089 17.728 12.104 17.75 12 17.75ZM10.4609 11.25C10.4589 11.25 10.458 11.25 10.457 11.25C10.067 11.252 9.77802 11.375 9.57202 11.626C9.27802 11.985 9.17603 12.577 9.30103 13.209C9.59803 14.712 11.294 15.776 11.999 16.158C12.704 15.775 14.4 14.712 14.697 13.208C14.821 12.575 14.72 11.984 14.427 11.625C14.222 11.374 13.932 11.251 13.541 11.249C13.54 11.249 13.5391 11.249 13.5371 11.249C12.9581 11.249 12.7291 11.825 12.7051 11.891C12.5961 12.19 12.268 12.395 11.99 12.387C11.672 12.383 11.3891 12.184 11.2881 11.882C11.2691 11.826 11.0399 11.25 10.4609 11.25Z" fill="currentColor"/>
</svg>

<svg xmlns="http://www.w3.org/2000/svg" width="24" height="24" fill="none"><path fill="currentColor" d="M18 20.75H6c-2.418 0-3.75-1.332-3.75-3.75V7c0-2.418 1.332-3.75 3.75-3.75h4c.199 0 .39.079.53.22l2.78 2.78H18c2.418 0 3.75 1.332 3.75 3.75v7c0 2.418-1.332 3.75-3.75 3.75Zm-12-16c-1.577 0-2.25.673-2.25 2.25v10c0 1.577.673 2.25 2.25 2.25h12c1.577 0 2.25-.673 2.25-2.25v-7c0-1.577-.673-2.25-2.25-2.25h-5a.747.747 0 0 1-.53-.22L9.69 4.75H6Zm6 13a.766.766 0 0 1-.307-.065c-.136-.061-3.338-1.521-3.863-4.185-.214-1.083-.001-2.112.58-2.823.494-.602 1.199-.922 2.039-.926h.013c.66 0 1.169.256 1.538.588a2.244 2.244 0 0 1 1.538-.588h.013c.842.004 1.547.324 2.04.926.581.712.792 1.741.578 2.823-.524 2.664-3.727 4.124-3.862 4.185a.766.766 0 0 1-.307.065Zm-1.54-6.5h-.003c-.39.002-.679.125-.885.376-.294.359-.396.951-.271 1.583.297 1.503 1.993 2.567 2.698 2.949.705-.383 2.401-1.446 2.698-2.95.124-.633.023-1.224-.27-1.583-.205-.251-.495-.374-.886-.376h-.004c-.579 0-.808.576-.832.642a.789.789 0 0 1-.715.496.745.745 0 0 1-.702-.505c-.019-.056-.248-.632-.827-.632Z"/></svg>
